packages/foundations/assets/icons/functional/images/maps/location_arrow_north_32.svg

<svg width="32" height="32" viewBox="0 0 32 32" fill="none" xmlns="http://www.w3.org/2000/svg">
<g clip-path="url(#clip0_2213_4817)">
<path fill-rule="evenodd" clip-rule="evenodd" d="M17.5557 21.8659C17.1447 21.4519 16.5907 20.8029 15.9997 20.8029C15.4127 20.8029 14.8607 21.4499 14.4447 21.8659L11.2587 25.0529L15.9997 12.4529L20.7417 25.0529L17.5557 21.8659ZM23.9227 27.8269L16.9407 9.27793C16.7437 8.75393 16.2897 8.59893 15.9997 8.59589C15.7107 8.59293 15.2477 8.77193 15.0667 9.25393L8.07668 27.8279C7.91168 28.2669 8.01868 28.7629 8.35068 29.0959C8.81768 29.5629 9.57568 29.5629 10.0437 29.0959L15.8587 23.2799C15.9367 23.2019 16.0637 23.2019 16.1417 23.2799L21.9567 29.0949C22.2887 29.4269 22.7847 29.5349 23.2247 29.3689C23.8427 29.1359 24.1557 28.4459 23.9227 27.8269ZM16 7.19182C16.552 7.19182 17 6.74382 17 6.19183V3.55383C16.998 2.94383 16.513 2.55383 16 2.55383C15.448 2.55383 15 3.00183 15 3.55383V6.19183C15.001 6.76183 15.487 7.19182 16 7.19182Z" fill="#1A1C1F"/>
</g>
<defs>
<clipPath id="clip0_2213_4817">
<rect width="32" height="32" fill="white"/>
</clipPath>
</defs>
</svg>

<svg xmlns="http://www.w3.org/2000/svg" width="32" height="32" fill="none"><g clip-path="url(#a)"><path fill="#1A1C1F" fill-rule="evenodd" d="M17.556 21.866c-.411-.414-.965-1.063-1.556-1.063-.587 0-1.14.647-1.555 1.063l-3.186 3.187 4.74-12.6 4.743 12.6zm6.367 5.96L16.94 9.279A1.02 1.02 0 0 0 16 8.596a1.02 1.02 0 0 0-.933.658l-6.99 18.574a1.198 1.198 0 0 0 1.967 1.268l5.815-5.816a.2.2 0 0 1 .283 0l5.815 5.815a1.196 1.196 0 0 0 1.966-1.268M16 7.193a1 1 0 0 0 1-1V3.554a.99.99 0 0 0-1-1 1 1 0 0 0-1 1v2.638c.001.57.487 1 1 1" clip-rule="evenodd"/></g><defs><clipPath id="a"><path fill="#fff" d="M0 0h32v32H0z"/></clipPath></defs></svg>
